X:1
T:Our Watchword, 11.11.11 D
T:Our Watchword, 11.11.11 D
T:Henry Alford (1810-1871
T:Public Domain Courtesy of the Cyber Hymnal™
C:Henry Alford (1810-1871
Z:Public Domain
Z:Courtesy of the Cyber Hymnal™
%%score ( 1 2 ) ( 3 4 )
L:1/8
Q:1/4=110
M:4/4
K:Eb
V:1 treble 
V:2 treble 
V:3 bass 
V:4 bass 
V:1
 [B,E]2 [B,E]2 [CE]2 [B,E]2 | F4 [EG]4 | [DB]2 [GB]2 [EA]2 [DA]2 | [EG]8 | %4
 [EG]2 [CG]2 [DG]2 [EG]2 | A4 G4 | [DB]2 [DB]2 [E=A]2 [DA]2 | [B,G]8 | [FA]2 [FA]2 [EG]2 [DF]2 | %9
 c4 [GB]4 | [Ge]2 [Ge]2 [Fd]2 [Ec]2 | [DB]8 | [Ec]2 [Dc]2 [EB]2 [DA]2 | G4 [CE]4 | %14
 [EF]2 [EF]2 [EG]2 [DF]2 | [B,E]8 | [EG]2 [EG]2 [DG]2 [EG]2 | [Ec]4 [EB]4 | %18
 [EG]2 [EG]2 [EG]2 [EF]2 | [DB]8 | [Ge]2 [Ge]2 [Gd]2 [Ac]2 | [EB]4 [EG]4 | %22
 [FA]2 [CF]2 [EF]2 [DF]2 | [B,E]8 |] %24
V:2
 x8 | (C2 D2) x4 | x8 | x8 | x8 | (F2 E2) (D2 E2) | x8 | x8 | x8 | (E2 F2) x4 | x8 | x8 | x8 | %13
 (E2 B,2) x4 | x8 | x8 | x8 | x8 | x8 | x8 | x8 | x8 | x8 | x8 |] %24
V:3
 [E,G,]2 [D,G,]2 [C,G,]2 [G,,E,]2 | ([A,,C]2 [B,,B,]2) [E,,B,]4 | [G,B,]2 [E,E]2 [F,C]2 [B,,B,]2 | %3
 [E,B,]8 | [C,C]2 [E,G,]2 [D,=B,]2 [C,C]2 | [F,,C]4 ([G,,=B,]2 [C,C]2) | %6
 [G,,B,]2 [B,,G,]2 [C,G,]2 [D,^F,]2 | [G,,G,]8 | [F,,C]2 [F,,C]2 [B,,B,]2 [B,,B,]2 | %9
 (C2 D2) [E,E]4 | [C,G,]2 [C,G,]2 [F,B,]2 [F,=A,]2 | [B,,B,]8 | [A,,E,]2 A,2 [G,B,]2 [F,B,]2 | %13
 (G,2 E,2) [C,E,]4 | [A,,C]2 [A,,C]2 [B,,B,]2 [B,,A,]2 | [E,,G,]8 | %16
 [E,G,]2 [C,G,]2 [=B,,F,]2 [C,E,]2 | [A,,A,]4 [E,G,]4 | [E,B,]2 B,2 [C,B,]2 [C,=A,]2 | [B,,B,]8 | %20
 [C,G,]2 C2 [B,D]2 [A,E]2 | [G,B,]4 [C,C]4 | [F,,C]2 [A,,F,]2 [B,,B,]2 [B,,A,]2 | [E,,G,]8 |] %24
V:4
 x8 | x8 | x8 | x8 | x8 | x8 | x8 | x8 | x8 | A,,4 x4 | x8 | x8 | x2 A,2 x4 | E,4 x4 | x8 | x8 | %16
 x8 | x8 | x2 (E,D,) x4 | x8 | x2 C2 x4 | x8 | x8 | x8 |] %24

